X:1
T:Teelin Island
R:Highland
S:François Champs (Fev/2005)
M:2/2
L:1/8
K:Amix
|: "A (no 3d)" A2eg fdeA | A/c/def gfg2 | A2eg fdfa | "G/A" gedg eAAA :|
|: "A" a2eg fdgf | eAcA A/c/deg | "Em/A" a2eg fdfa | "G/A" gedg eAAA :|
